img/logo.svg

<?xml version="1.0" encoding="UTF-8"?>
<svg xmlns="http://www.w3.org/2000/svg" xmlns:xlink="http://www.w3.org/1999/xlink" width="531pt" height="429pt" viewBox="0 0 531 429" version="1.1">
<g id="surface1">
<rect x="0" y="0" width="531" height="429" style="fill:rgb(100%,100%,100%);fill-opacity:1;stroke:none;"/>
<path style=" stroke:none;fill-rule:nonzero;fill:rgb(0%,0%,0%);fill-opacity:1;" d="M 36 403 C 16.769531 356.128906 5.257813 306 11.285156 255 C 17.628906 201.425781 36.222656 151 69.234375 108 C 132 26.105469 241.277344 -11.695313 340 21.332031 C 367 30.410156 392.433594 44.347656 415 62 C 442 83 464.414063 109.429688 481.574219 139 C 500.933594 172.351563 513.246094 209.707031 517.84375 248 C 522.511719 287 519.332031 326.296875 508.574219 364 C 504.65625 377.726563 498.578125 390.550781 494 404 C 500.167969 402.070313 502 393.613281 504 388 C 509.417969 372.492188 514.171875 357.136719 517.398438 341 C 527.523438 290.371094 524.339844 236 507.304688 187 C 502.460938 173.105469 496.808594 158.832031 489.574219 146 C 485.675781 139.082031 477.8125 130 477 122 C 472.269531 122 461.625 103.292969 458.167969 99 C 441.722656 78.585938 421.785156 61.191406 400 46.667969 C 322.886719 -4.742188 219.488281 -7 140 40.332031 C 51.664063 93.089844 -1.941406 199.75 8 302 C 10.625 329.003906 13.53125 356.425781 23.832031 382 C 26.277344 388.0625 28.527344 402.796875 36 403 M 234 135 C 229.988281 137.785156 228.894531 143.621094 227 148 C 219.746094 165.65625 222.503906 176.65625 224 195 L 235.203125 202.1875 L 252 205 L 231 222 L 234 221 L 223 229 L 223 230 L 225 231 L 215 236 L 215 237 L 218 237 L 204 247 C 200.929688 258 179 268.230469 170 274.59375 C 157.421875 283.414063 142.46875 291 131 301.210938 C 108.550781 321.34375 101.53125 352 111 380 C 101.667969 380 92.746094 377.554688 87.480469 369 C 78.742188 354.753906 89.652344 336.148438 106 336 C 105.5 331.628906 103.960938 330 100 328 C 98 318.257813 82.976563 323.566406 77 326 L 78 323 C 57.992188 333 43 362.351563 60.417969 381.695313 C 74.636719 397.597656 101.179688 401 120 393 C 125.21875 403 139.898438 411.425781 151 412 L 151 413 L 12 413 L 12 416 L 519 416 L 519 413 L 319 413 L 319 412 C 332 412 331.335938 405 338.601563 397.589844 C 343.40625 392.703125 353 396.347656 357.214844 390 C 364.21875 379 340.476563 375.78125 336.5625 371 C 332.722656 366.019531 332.722656 358.667969 331 353 L 333 353 C 331.535156 348.609375 328.523438 330.132813 332 331 C 330.4375 317.382813 338.949219 314 344.820313 303.699219 C 346.949219 300.011719 346.226563 294.175781 347 290 L 348 290 L 350 297 C 365.6875 275.308594 369.746094 255.300781 360 230 L 363 231 L 354 223 C 356.308594 213.269531 350.566406 212 347.601563 204 C 345.90625 199.425781 346.621094 193 346 188 C 333.972656 180.4375 358.21875 161.195313 361 154 L 365 156 L 369 150 L 371 152 L 376 146 C 369.726563 172.34375 373.648438 203.015625 372.984375 230 C 372.628906 244.636719 372.242188 259.3125 371.996094 274 C 371.929688 278.007813 369.839844 282.078125 370.28125 286 C 370.722656 290 374.613281 292.265625 374.972656 296 C 375.40625 300.570313 371 305.777344 371 311 L 381 311 C 381.523438 266.296875 377.523438 216.101563 383.574219 170 C 386.238281 149.707031 382.9375 132.5 404 121 C 415 150.625 404.175781 181.761719 399 212 C 394.554688 239 395.761719 266 393.910156 293 C 393 306.015625 389.332031 319.011719 389 332 C 388.789063 341.203125 388.554688 351.644531 395.328125 359 C 405.964844 370.199219 427.816406 365 434.46875 352 C 443.605469 334.304688 427.40625 316.421875 417 303.714844 C 410.863281 296.171875 401.691406 288.796875 410 279 L 410 277 C 399 267.765625 404.808594 248.660156 406 236 C 408.875 210.710938 417.839844 185.394531 418.960938 160 C 419.355469 151.105469 420 140.785156 418.675781 132 C 417.8125 126.820313 413.449219 121.125 413.570313 116 C 413.683594 111.035156 420.488281 107 422.183594 102 C 425.691406 92.007813 420.621094 80.277344 416.742188 71.285156 C 415.484375 68.371094 415.9375 65.511719 412.851563 63.6875 C 401 56.734375 387.625 72.621094 375 72 C 363.722656 71.238281 357.429688 59.339844 346 59 L 347 56 C 320.285156 57.8125 291 56.445313 272.332031 80.183594 C 268.839844 84.609375 264.851563 89.609375 263 95 C 261.339844 100.144531 261.808594 106.480469 258.484375 111 C 252.335938 119.25 233.285156 122.617188 234 135 "/>
<path style=" stroke:none;fill-rule:nonzero;fill:rgb(100%,100%,100%);fill-opacity:1;" d="M 359 229 L 360 230 L 359 229 M 365 252 L 366 253 L 365 252 M 372 284 L 373 288 L 380 286 L 380 284 L 372 284 M 402 303 C 401.898438 315.398438 397.21875 327.539063 398 340 C 399.191406 355.796875 417.320313 364.105469 426.230469 348 C 434.253906 333.429688 413.179688 310.070313 402 303 M 376 304 L 376 310 L 377 310 L 376 304 M 278 343 L 258 354 L 259 350 L 258 350 C 250.777344 359 229.667969 363.398438 231.191406 378 C 231.667969 382.519531 236.222656 383.40625 240 384.074219 C 246.195313 385.175781 254.421875 384.347656 259.816406 388.007813 C 273.832031 397.527344 267.394531 408.191406 254 411.175781 C 249.710938 412.132813 245.363281 412 241 412 L 241 413 L 297 413 L 297 412 C 289.980469 410.023438 280.882813 400.078125 279 393 L 278 393 L 277 396 L 276 396 L 275 384 C 276.925781 378 280.320313 360.648438 275 356 L 278 343 "/>
<path style=" stroke:none;fill-rule:nonzero;fill:rgb(0%,0%,0%);fill-opacity:1;" d="M 274 384 L 275 385 L 274 384 "/>
</g>
</svg>

<?xml version="1.0" encoding="utf-8"?>
<!-- Generator: Adobe Illustrator 23.0.1, SVG Export Plug-In . SVG Version: 6.00 Build 0)  -->
<svg version="1.1" id="Layer_1" xmlns="http://www.w3.org/2000/svg" xmlns:xlink="http://www.w3.org/1999/xlink" x="0px" y="0px"
	 viewBox="0 0 531 429" style="enable-background:new 0 0 531 429;" xml:space="preserve">
<style type="text/css">
	.st0{fill:#FFFFFF;}
</style>
<g id="surface1">
	<rect class="st0" width="531" height="429"/>
	<path d="M36,403c-19.2-46.9-30.7-97-24.7-148c6.3-53.6,24.9-104,57.9-147C132,26.1,241.3-11.7,340,21.3c27,9.1,52.4,23,75,40.7
		c27,21,49.4,47.4,66.6,77c19.4,33.4,31.7,70.7,36.3,109c4.7,39,1.5,78.3-9.3,116c-3.9,13.7-10,26.6-14.6,40c6.2-1.9,8-10.4,10-16
		c5.4-15.5,10.2-30.9,13.4-47c10.1-50.6,6.9-105-10.1-154c-4.8-13.9-10.5-28.2-17.7-41c-3.9-6.9-9.6-16.7-13.9-23.5
		c-3.1-4.9-14-19.2-17.5-23.5c-16.4-20.4-36.4-37.8-58.2-52.3C322.9-4.7,219.5-7,140,40.3C51.7,93.1-1.9,199.8,8,302
		c2.6,27,5.5,54.4,15.8,80C26.3,388.1,28.5,402.8,36,403 M234,135c-4,2.8-5.1,8.6-7,13c-7.3,17.7-4.5,28.7-3,47l11.2,7.2L252,205
		l-21,17l3-1l-11,8v1l2,1l-10,5v1h3l-14,10c-3.1,11-25,21.2-34,27.6c-12.6,8.8-27.5,16.4-39,26.6c-22.4,20.1-29.5,50.8-20,78.8
		c-9.3,0-18.3-2.4-23.5-11c-8.7-14.2,2.2-32.9,18.5-33c-0.5-4.4-2-6-6-8c-2-9.7-17-4.4-23-2l1-3c-20,10-35,39.4-17.6,58.7
		C74.6,397.6,101.2,401,120,393c5.2,10,19.9,18.4,31,19v1H12v3h507v-3H319v-1c13,0,12.3-7,19.6-14.4c4.8-4.9,14.4-1.2,18.6-7.6
		c7-11-16.7-14.2-20.7-19c-3.8-5-3.8-12.3-5.6-18h2c-1.5-4.4-4.5-22.9-1-22c-1.6-13.6,6.9-17,12.8-27.3c2.1-3.7,1.4-9.5,2.2-13.7h1
		l2,7c15.7-21.7,19.7-41.7,10-67l3,1l-9-8c2.3-9.7-3.4-11-6.4-19c-1.7-4.6-1-11-1.6-16c-12-7.6,12.2-26.8,15-34l4,2l4-6l2,2l5-6
		c-6.3,26.3-2.4,57-3,84c-0.4,14.6-0.7,29.3-1,44c-0.1,4-2.2,8.1-1.7,12c0.4,4,4.3,6.3,4.7,10c0.4,4.6-4,9.8-4,15h10
		c0.5-44.7-3.5-94.9,2.6-141c2.7-20.3-0.6-37.5,20.4-49c11,29.6,0.2,60.8-5,91c-4.4,27-3.2,54-5.1,81c-0.9,13-4.6,26-4.9,39
		c-0.2,9.2-0.4,19.6,6.3,27c10.6,11.2,32.5,6,39.1-7c9.1-17.7-7.1-35.6-17.5-48.3c-6.1-7.5-15.3-14.9-7-24.7v-2
		c-11-9.2-5.2-28.3-4-41c2.9-25.3,11.8-50.6,13-76c0.4-8.9,1-19.2-0.3-28c-0.9-5.2-5.2-10.9-5.1-16c0.1-5,6.9-9,8.6-14
		c3.5-10-1.6-21.7-5.4-30.7c-1.3-2.9-0.8-5.8-3.9-7.6c-11.9-7-25.2,8.9-37.9,8.3c-11.3-0.8-17.6-12.7-29-13l1-3
		c-26.7,1.8-56,0.4-74.7,24.2c-3.5,4.4-7.5,9.4-9.3,14.8c-1.7,5.1-1.2,11.5-4.5,16C252.3,119.3,233.3,122.6,234,135"/>
	<path class="st0" d="M359,229l1,1L359,229 M365,252l1,1L365,252 M372,284l1,4l7-2v-2H372 M402,303c-0.1,12.4-4.8,24.5-4,37
		c1.2,15.8,19.3,24.1,28.2,8C434.3,333.4,413.2,310.1,402,303 M376,304v6h1L376,304 M278,343l-20,11l1-4h-1
		c-7.2,9-28.3,13.4-26.8,28c0.5,4.5,5,5.4,8.8,6.1c6.2,1.1,14.4,0.3,19.8,3.9c14,9.5,7.6,20.2-5.8,23.2c-4.3,1-8.6,0.8-13,0.8v1h56
		v-1c-7-2-16.1-11.9-18-19h-1l-1,3h-1l-1-12c1.9-6,5.3-23.4,0-28L278,343"/>
	<path d="M274,384l1,1L274,384"/>
</g>
</svg>
